COLOR/action 16/16/distribute-horizontal-left.svg

<svg height="16" viewBox="0 0 16 16" width="16" xmlns="http://www.w3.org/2000/svg"><path d="m0 13.318182h1.6363636 4.9090909v-8.0000002h-1.6363636-4.9090909v1.3333338z" fill="#1a7fd4" stroke-width="1.477098"/><path d="m8.3636364 4.5909091h1.0909086v10.9090909h-1.0909086z" fill="#e95420" stroke-width=".862439"/><path d="m9.454545 5.3181818h1.636364 4.909091v9.4545452h-1.636364-4.909091v-1.575758z" fill="#1a7fd4" stroke-width="1.605775"/><path d="m0 15.5h1.0909091v-10.9090909h-1.0909091z" fill="#e95420" stroke-width=".862439"/><g fill="#c43ac4" fill-rule="evenodd" stroke-width=".990045" transform="matrix(.72727273 0 0 .72727273 -.727273 -.5)"><path d="m3.6758924 1.0030674-2.6758924 2.7208586 2.6758924 2.776074v-2.199386h3.4798224v-1.1012275h-2.1592889-1.3205335z"/><path d="m8.3241067 6.496933 2.6758933-2.720859-2.6758933-2.7760739v2.1993864h-3.4798215v1.1012275h2.1592889 1.3205326z"/></g></svg>

<?xml version="1.0" encoding="UTF-8" standalone="no"?>
<svg
   xmlns:dc="http://purl.org/dc/elements/1.1/"
   xmlns:cc="http://creativecommons.org/ns#"
   xmlns:rdf="http://www.w3.org/1999/02/22-rdf-syntax-ns#"
   xmlns:svg="http://www.w3.org/2000/svg"
   xmlns="http://www.w3.org/2000/svg"
   xmlns:sodipodi="http://sodipodi.sourceforge.net/DTD/sodipodi-0.dtd"
   xmlns:inkscape="http://www.inkscape.org/namespaces/inkscape"
   viewBox="0 0 16 16"
   version="1.1"
   id="svg16"
   sodipodi:docname="distribute-horizontal-left.svg"
   width="16"
   height="16"
   inkscape:version="0.92.4 (5da689c313, 2019-01-14)">
  <metadata
     id="metadata22">
    <rdf:RDF>
      <cc:Work
         rdf:about="">
        <dc:format>image/svg+xml</dc:format>
        <dc:type
           rdf:resource="http://purl.org/dc/dcmitype/StillImage" />
        <dc:title></dc:title>
      </cc:Work>
    </rdf:RDF>
  </metadata>
  <defs
     id="defs20" />
  <sodipodi:namedview
     pagecolor="#ffffff"
     bordercolor="#666666"
     borderopacity="1"
     objecttolerance="10"
     gridtolerance="10"
     guidetolerance="10"
     inkscape:pageopacity="0"
     inkscape:pageshadow="2"
     inkscape:window-width="1057"
     inkscape:window-height="601"
     id="namedview18"
     showgrid="false"
     inkscape:zoom="9.8333333"
     inkscape:cx="12"
     inkscape:cy="12"
     inkscape:window-x="0"
     inkscape:window-y="27"
     inkscape:window-maximized="0"
     inkscape:current-layer="svg16" />
  <path
     d="M 0,13.318182 H 1.6363636 6.5454545 V 5.3181818 H 4.9090909 0 v 1.3333338 z"
     id="path2"
     inkscape:connector-curvature="0"
     style="fill:#1a7fd4;stroke-width:1.47709811" />
  <path
     d="M 8.3636364,4.5909091 H 9.454545 V 15.5 H 8.3636364 Z"
     id="path4"
     inkscape:connector-curvature="0"
     style="fill:#e95420;stroke-width:0.86243922" />
  <path
     d="M 9.454545,5.3181818 H 11.090909 16 V 14.772727 H 14.363636 9.454545 v -1.575758 z"
     id="path6"
     inkscape:connector-curvature="0"
     style="fill:#1a7fd4;stroke-width:1.60577464" />
  <path
     d="M 0,15.5 H 1.0909091 V 4.5909091 H 0 Z"
     id="path8"
     inkscape:connector-curvature="0"
     style="fill:#e95420;stroke-width:0.86243922" />
  <g
     id="g14"
     style="fill:#c43ac4;fill-rule:evenodd;stroke-width:0.99004501"
     transform="matrix(0.72727273,0,0,0.72727273,-0.72727273,-0.5)">
    <path
       d="M 3.6758924,1.0030674 1,3.723926 3.6758924,6.5 V 4.300614 H 7.1557148 V 3.1993865 H 4.9964259 3.6758924 Z"
       id="path10"
       inkscape:connector-curvature="0" />
    <path
       d="M 8.3241067,6.496933 11,3.776074 8.3241067,1.0000001 V 3.1993865 H 4.8442852 V 4.300614 h 2.1592889 1.3205326 z"
       id="path12"
       inkscape:connector-curvature="0" />
  </g>
</svg>
